src/icons/cake.svg

<svg viewBox="0 0 24 24" xmlns="http://www.w3.org/2000/svg">
  <path
    d="M12 7.175C12.2375 7.17513 12.4726 7.12846 12.692 7.03764C12.9115 6.94683 13.1108 6.81366 13.2787 6.64574C13.4467 6.47783 13.5798 6.27846 13.6706 6.05905C13.7615 5.83963 13.8081 5.60447 13.808 5.367C13.808 5.024 13.718 4.707 13.546 4.437L12 1.75L10.454 4.435C10.2794 4.71389 10.1885 5.037 10.192 5.366C10.1919 5.60351 10.2385 5.83873 10.3293 6.0582C10.4201 6.27767 10.5533 6.4771 10.7212 6.6451C10.8891 6.81309 11.0885 6.94636 11.3079 7.03728C11.5273 7.1282 11.7625 7.175 12 7.175ZM16.158 16.215L15.191 15.238L14.215 16.215C13.04 17.381 10.978 17.39 9.795 16.215L8.836 15.238L7.842 16.215C7.32333 16.7271 6.64237 17.0424 5.91632 17.1067C5.19028 17.1709 4.46454 16.9801 3.864 16.567V20.734C3.864 20.9738 3.95924 21.2037 4.12877 21.3732C4.29831 21.5428 4.52824 21.638 4.768 21.638H19.231C19.4708 21.638 19.7007 21.5428 19.8702 21.3732C20.0398 21.2037 20.135 20.9738 20.135 20.734V16.567C19.5344 16.9797 18.8088 17.1702 18.083 17.1058C17.3572 17.0413 16.6765 16.727 16.158 16.215ZM17.423 9.887H12.903V8.079H11.096V9.887H6.576C5.85673 9.887 5.16692 10.1727 4.65832 10.6813C4.14973 11.1899 3.864 11.8797 3.864 12.599V13.991C3.864 14.967 4.659 15.763 5.636 15.763C6.124 15.763 6.576 15.582 6.883 15.247L8.836 13.322L10.743 15.247C11.412 15.917 12.578 15.917 13.247 15.247L15.163 13.322L17.107 15.247C17.423 15.582 17.875 15.763 18.354 15.763C19.331 15.763 20.135 14.967 20.135 13.991V12.599C20.135 11.8797 19.8493 11.1899 19.3407 10.6813C18.8321 10.1727 18.1423 9.887 17.423 9.887Z"
    fill="#FF7043"
  />
</svg>

<svg viewBox="0 0 24 24" xmlns="http://www.w3.org/2000/svg">
  <path
    d="M12 7.175a1.807 1.807 0 0 0 1.808-1.808c0-.343-.09-.66-.262-.93L12 1.75l-1.546 2.685a1.72 1.72 0 0 0-.262.931A1.808 1.808 0 0 0 12 7.175m4.158 9.04-.967-.977-.976.977c-1.175 1.166-3.237 1.175-4.42 0l-.959-.977-.994.977a3.134 3.134 0 0 1-3.978.352v4.167a.904.904 0 0 0 .904.904h14.463a.904.904 0 0 0 .904-.904v-4.167a3.134 3.134 0 0 1-3.977-.353m1.265-6.327h-4.52V8.079h-1.807v1.808h-4.52a2.712 2.712 0 0 0-2.712 2.712v1.392c0 .976.795 1.772 1.772 1.772.488 0 .94-.181 1.247-.516l1.953-1.925 1.907 1.925c.669.67 1.835.67 2.504 0l1.916-1.925 1.944 1.925c.316.335.768.516 1.247.516.977 0 1.781-.796 1.781-1.772v-1.392a2.712 2.712 0 0 0-2.712-2.712z"
    style="fill: #ff7043; stroke-width: 0.90395"
  />
</svg>
